src/main/resources/icons/cwmAccess_dark.svg

<!-- Copyright 2000-2023 JetBrains s.r.o. and contributors. Use of this source code is governed by the Apache 2.0 license. -->
<svg width="16" height="16" viewBox="0 0 16 16" fill="none" xmlns="http://www.w3.org/2000/svg">
<path fill-rule="evenodd" clip-rule="evenodd" d="M7.99951 7C9.65637 7 10.9995 5.65685 10.9995 4C10.9995 2.34315 9.65637 1 7.99951 1C6.34266 1 4.99951 2.34315 4.99951 4C4.99951 5.65685 6.34266 7 7.99951 7ZM7.99951 6C9.10408 6 9.99951 5.10457 9.99951 4C9.99951 2.89543 9.10408 2 7.99951 2C6.89494 2 5.99951 2.89543 5.99951 4C5.99951 5.10457 6.89494 6 7.99951 6Z" fill="#CED0D6"/>
<path d="M2.10272 13.008C2.39906 11.3034 3.54766 8 7.99969 8C9.23765 8 10.2202 8.25542 11 8.66087V9.82872C10.3142 9.34481 9.3588 9 7.99969 9C6.05804 9 4.94028 9.70375 4.25563 10.5114C3.59131 11.2951 3.27126 12.2552 3.12154 13H8V14H2.99969C2.4474 14 2.00813 13.5521 2.10272 13.008Z" fill="#CED0D6"/>
<path fill-rule="evenodd" clip-rule="evenodd" d="M12.5 9C12.7761 9 13 9.22386 13 9.5V12H15.5C15.7761 12 16 12.2239 16 12.5C16 12.7761 15.7761 13 15.5 13H13V15.5C13 15.7761 12.7761 16 12.5 16C12.2239 16 12 15.7761 12 15.5V13H9.5C9.22386 13 9 12.7761 9 12.5C9 12.2239 9.22386 12 9.5 12H12V9.5C12 9.22386 12.2239 9 12.5 9Z" fill="#CED0D6"/>
</svg>

<svg xmlns="http://www.w3.org/2000/svg" width="16" height="16" fill="none"><path fill="#CED0D6" fill-rule="evenodd" d="M8 7a3 3 0 1 0 0-6 3 3 0 0 0 0 6m0-1a2 2 0 1 0 0-4 2 2 0 0 0 0 4" clip-rule="evenodd"/><path fill="#CED0D6" d="M2.103 13.008C2.399 11.303 3.548 8 8 8c1.238 0 2.22.255 3 .66v1.17C10.314 9.345 9.359 9 8 9c-1.942 0-3.06.704-3.744 1.511-.665.784-.985 1.744-1.134 2.489H8v1H3c-.553 0-.992-.448-.897-.992"/><path fill="#CED0D6" fill-rule="evenodd" d="M12.5 9a.5.5 0 0 1 .5.5V12h2.5a.5.5 0 0 1 0 1H13v2.5a.5.5 0 0 1-1 0V13H9.5a.5.5 0 0 1 0-1H12V9.5a.5.5 0 0 1 .5-.5" clip-rule="evenodd"/></svg>
